svgs/sharp-regular/shirt-long-sleeve.svg

<svg xmlns="http://www.w3.org/2000/svg" viewBox="0 0 640 512"><!--! Font Awesome Pro 6.6.0 by @fontawesome - https://fontawesome.com License - https://fontawesome.com/license (Commercial License) Copyright 2024 Fonticons, Inc. --><path d="M117.4 0l14.2 0L160 0l24 0 12 0 44 0 24 0 0 24c0 30.9 25.1 56 56 56s56-25.1 56-56l0-24 24 0 44 0 12 0 24 0 28.4 0 14.2 0 6.8 12.4 13.7 24.9 88 160 5.9 10.8 3 5.4 0 6.2 0 12.3 0 192 0 24-24 0-96 0-24 0 0-24 0-173.5-16-29.1L480 488l0 24-24 0-272 0-24 0 0-24 0-266.6-16 29.1L144 424l0 24-24 0-96 0L0 448l0-24L0 232l0-12.3 0-6.2 3-5.4 5.9-10.8 88-160 13.7-24.9L117.4 0zm28.4 48L139 60.4l-88 160-3 5.4 0 6.2 0 168 48 0 0-155.7 0-6.2 3-5.4 64-116.4L208 128l0 336 224 0 0-336 45-11.6 64 116.4 3 5.4 0 6.2L544 400l48 0 0-168 0-6.2-3-5.4-88-160L494.2 48 480 48l-24 0-12 0-22.8 0c-10.8 45.9-52 80-101.2 80s-90.4-34.1-101.2-80L196 48l-12 0-24 0-14.2 0z"/></svg>

<svg xmlns="http://www.w3.org/2000/svg" viewBox="0 0 640 512"><!--! Font Awesome Pro 6.4.2 by @fontawesome - https://fontawesome.com License - https://fontawesome.com/license (Commercial License) Copyright 2023 Fonticons, Inc. --><path d="M117.4 0h14.2H160h24 12 44 24V24c0 30.9 25.1 56 56 56s56-25.1 56-56V0h24 44 12 24 28.4 14.2l6.8 12.4 13.7 24.9 88 160 5.9 10.8 3 5.4v6.2V232 424v24H616 520 496V424 250.5l-16-29.1V488v24H456 184 160V488 221.4l-16 29.1V424v24H120 24 0V424 232 219.7v-6.2l3-5.4 5.9-10.8 88-160 13.7-24.9L117.4 0zm28.4 48L139 60.4l-88 160-3 5.4V232 400H96V244.3v-6.2l3-5.4 64-116.4L208 128V464H432V128l45-11.6 64 116.4 3 5.4v6.2V400h48V232v-6.2l-3-5.4-88-160L494.2 48H480 456 444 421.2c-10.8 45.9-52 80-101.2 80s-90.4-34.1-101.2-80H196 184 160 145.8z"/></svg>
